public/primaries/Globe.svg

<svg id="Layer_1" data-name="Layer 1" xmlns="http://www.w3.org/2000/svg" width="64" height="64" viewBox="0 0 64 64">
  <defs>
    <style>
      .cls-1 {
        fill-rule: evenodd;
      }
    </style>
  </defs>
  <title>Icons 100</title>
  <path class="cls-1" d="M32.002,56L32,56l-0.0018,0A24,24,0,1,1,32.002,56ZM21.5348,47.9049a27.673,27.673,0,0,1-1.5314-3.57A0.4963,0.4963,0,0,0,19.5373,44H17.0584a0.4994,0.4994,0,0,0-.3921.8119,20.0913,20.0913,0,0,0,4.1544,3.7417A0.4978,0.4978,0,0,0,21.5348,47.9049ZM14.023,40h4.1888a0.4917,0.4917,0,0,0,.4854-0.587,38.981,38.981,0,0,1-.613-4.9434A0.4958,0.4958,0,0,0,17.5915,34H12.67a0.5067,0.5067,0,0,0-.503.5654,19.8719,19.8719,0,0,0,1.3883,5.1263A0.5072,0.5072,0,0,0,14.023,40ZM12.67,30h4.9216a0.4958,0.4958,0,0,0,.4927-0.4695,38.98,38.98,0,0,1,.613-4.9435A0.4917,0.4917,0,0,0,18.2118,24H14.023a0.5071,0.5071,0,0,0-.4678.3084,19.873,19.873,0,0,0-1.3883,5.1263A0.5067,0.5067,0,0,0,12.67,30Zm4.3885-10h2.4789a0.4963,0.4963,0,0,0,.4661-0.3348,27.6362,27.6362,0,0,1,1.5314-3.57,0.4978,0.4978,0,0,0-.7141-0.6486,20.0929,20.0929,0,0,0-4.1544,3.7415A0.4994,0.4994,0,0,0,17.0584,20Zm12.1808-7.226c-1.97,1.1322-3.6857,3.4513-4.9541,6.5359a0.5039,0.5039,0,0,0,.4669.69H29.5a0.5,0.5,0,0,0,.5-0.5V13.2084A0.5057,0.5057,0,0,0,29.2392,12.774ZM29.5,24H23.2472a0.5019,0.5019,0,0,0-.494.3977,36.6763,36.6763,0,0,0-.6725,5.0664,0.5069,0.5069,0,0,0,.5038.536H29.5a0.5,0.5,0,0,0,.5-0.5v-5A0.5,0.5,0,0,0,29.5,24Zm0,10H22.5845a0.5069,0.5069,0,0,0-.5038.5361,36.6748,36.6748,0,0,0,.6725,5.0663,0.5019,0.5019,0,0,0,.494.3976H29.5a0.5,0.5,0,0,0,.5-0.5v-5A0.5,0.5,0,0,0,29.5,34Zm0,10H24.752a0.504,0.504,0,0,0-.4669.69c1.2684,3.0846,2.9842,5.4037,4.9541,6.5359A0.5057,0.5057,0,0,0,30,50.7914V44.5A0.5,0.5,0,0,0,29.5,44ZM51.33,34H46.4084a0.4958,0.4958,0,0,0-.4927.4695,38.98,38.98,0,0,1-.613,4.9435,0.4916,0.4916,0,0,0,.4854.587h4.1887a0.5069,0.5069,0,0,0,.4677-0.3083,19.8631,19.8631,0,0,0,1.3885-5.1263A0.5067,0.5067,0,0,0,51.33,34ZM46.9416,44h-2.479a0.4965,0.4965,0,0,0-.4661.3348,27.6451,27.6451,0,0,1-1.5314,3.57,0.4978,0.4978,0,0,0,.7141.6485,20.0855,20.0855,0,0,0,4.1544-3.7416A0.4994,0.4994,0,0,0,46.9416,44ZM34.7607,51.2258c1.97-1.1322,3.6857-3.4512,4.9543-6.5358A0.504,0.504,0,0,0,39.2481,44H34.5a0.5,0.5,0,0,0-.5.5v6.2914A0.5057,0.5057,0,0,0,34.7607,51.2258ZM34.5,40h6.2528a0.5019,0.5019,0,0,0,.494-0.3976,36.66,36.66,0,0,0,.6725-5.0663A0.5068,0.5068,0,0,0,41.4156,34H34.5a0.5,0.5,0,0,0-.5.5v5A0.5,0.5,0,0,0,34.5,40ZM34,13.2085V19.5a0.5,0.5,0,0,0,.5.5h4.7481a0.504,0.504,0,0,0,.4669-0.69c-1.2685-3.0846-2.9843-5.4036-4.9543-6.5359A0.5057,0.5057,0,0,0,34,13.2085ZM34,24.5v5a0.5,0.5,0,0,0,.5.5h6.9156a0.5068,0.5068,0,0,0,.5037-0.536,36.6763,36.6763,0,0,0-.6725-5.0664A0.5019,0.5019,0,0,0,40.7528,24H34.5A0.5,0.5,0,0,0,34,24.5Zm8.4651-8.4047a27.6377,27.6377,0,0,1,1.5314,3.57A0.4965,0.4965,0,0,0,44.4626,20h2.479a0.4994,0.4994,0,0,0,.392-0.8119,20.0883,20.0883,0,0,0-4.1544-3.7416A0.4978,0.4978,0,0,0,42.4651,16.0951Zm2.8376,8.4918a38.98,38.98,0,0,1,.613,4.9435A0.4958,0.4958,0,0,0,46.4084,30H51.33a0.5067,0.5067,0,0,0,.503-0.5654,19.8671,19.8671,0,0,0-1.3885-5.1264A0.507,0.507,0,0,0,49.9768,24H45.7881A0.4917,0.4917,0,0,0,45.3027,24.5869Z"/>
</svg>

<svg id="Layer_1" data-name="Layer 1" xmlns="http://www.w3.org/2000/svg" width="64" height="64" viewBox="0 0 64 64"><defs><style>.cls-1{fill-rule:evenodd}</style></defs><title>Icons 100</title><path class="cls-1" d="M32.002 56h-.004a24 24 0 1 1 .004 0zm-10.467-8.095a27.673 27.673 0 0 1-1.532-3.57.496.496 0 0 0-.466-.335h-2.479a.5.5 0 0 0-.392.812 20.091 20.091 0 0 0 4.155 3.742.498.498 0 0 0 .714-.65zM14.023 40h4.189a.492.492 0 0 0 .485-.587 38.981 38.981 0 0 1-.613-4.943.496.496 0 0 0-.492-.47H12.67a.507.507 0 0 0-.503.565 19.872 19.872 0 0 0 1.388 5.127.507.507 0 0 0 .468.308zM12.67 30h4.922a.496.496 0 0 0 .492-.47 38.98 38.98 0 0 1 .613-4.943.492.492 0 0 0-.485-.587h-4.189a.507.507 0 0 0-.468.308 19.873 19.873 0 0 0-1.388 5.127.507.507 0 0 0 .503.565zm4.388-10h2.48a.496.496 0 0 0 .465-.335 27.636 27.636 0 0 1 1.532-3.57.498.498 0 0 0-.714-.648 20.093 20.093 0 0 0-4.155 3.741.5.5 0 0 0 .392.812zm12.181-7.226c-1.97 1.132-3.685 3.451-4.954 6.536a.504.504 0 0 0 .467.69H29.5a.5.5 0 0 0 .5-.5v-6.292a.506.506 0 0 0-.76-.434zM29.5 24h-6.253a.502.502 0 0 0-.494.398 36.676 36.676 0 0 0-.672 5.066.507.507 0 0 0 .504.536H29.5a.5.5 0 0 0 .5-.5v-5a.5.5 0 0 0-.5-.5zm0 10h-6.916a.507.507 0 0 0-.503.536 36.675 36.675 0 0 0 .672 5.066.502.502 0 0 0 .494.398H29.5a.5.5 0 0 0 .5-.5v-5a.5.5 0 0 0-.5-.5zm0 10h-4.748a.504.504 0 0 0-.467.69c1.268 3.085 2.984 5.404 4.954 6.536A.506.506 0 0 0 30 50.79V44.5a.5.5 0 0 0-.5-.5zm21.83-10h-4.922a.496.496 0 0 0-.492.47 38.98 38.98 0 0 1-.613 4.943.492.492 0 0 0 .485.587h4.189a.507.507 0 0 0 .468-.308 19.863 19.863 0 0 0 1.388-5.127.507.507 0 0 0-.503-.565zm-4.388 10h-2.48a.496.496 0 0 0-.466.335 27.645 27.645 0 0 1-1.53 3.57.498.498 0 0 0 .713.648 20.085 20.085 0 0 0 4.155-3.741.5.5 0 0 0-.392-.812zM34.76 51.226c1.97-1.132 3.685-3.451 4.954-6.536a.504.504 0 0 0-.467-.69H34.5a.5.5 0 0 0-.5.5v6.291a.506.506 0 0 0 .76.435zM34.5 40h6.253a.502.502 0 0 0 .494-.398 36.66 36.66 0 0 0 .672-5.066.507.507 0 0 0-.503-.536H34.5a.5.5 0 0 0-.5.5v5a.5.5 0 0 0 .5.5zM34 13.209V19.5a.5.5 0 0 0 .5.5h4.748a.504.504 0 0 0 .467-.69c-1.268-3.085-2.984-5.404-4.954-6.536a.506.506 0 0 0-.761.435zM34 24.5v5a.5.5 0 0 0 .5.5h6.916a.507.507 0 0 0 .503-.536 36.676 36.676 0 0 0-.672-5.066.502.502 0 0 0-.494-.398H34.5a.5.5 0 0 0-.5.5zm8.465-8.405a27.638 27.638 0 0 1 1.531 3.57.496.496 0 0 0 .467.335h2.479a.5.5 0 0 0 .392-.812 20.088 20.088 0 0 0-4.155-3.742.498.498 0 0 0-.714.65zm2.838 8.492a38.98 38.98 0 0 1 .613 4.944.496.496 0 0 0 .492.469h4.922a.507.507 0 0 0 .503-.565 19.867 19.867 0 0 0-1.389-5.127.507.507 0 0 0-.467-.308h-4.189a.492.492 0 0 0-.485.587z"/></svg>
